common/svg/update-icon.svg

<svg fill="none" height="20" viewBox="0 0 20 20" width="20" xmlns="http://www.w3.org/2000/svg"><g fill="#000"><path d="m3.41455 9.99999 6.58542 3.29271 6.58543-3.29272 3.3974 1.69872-9.98283 4.9914-9.9828802-4.9914z"/><path clip-rule="evenodd" d="m9.99997 4.65142-7.29959 3.6498 7.2996 3.64978 7.29962-3.64978zm0-1.34164 9.98283 4.99144-9.98283 4.99148-9.9828725-4.99148z" fill-rule="evenodd"/></g></svg>

<svg width="20" height="20" viewBox="0 0 20 20" fill="none" xmlns="http://www.w3.org/2000/svg">
<path d="M3.41455 9.99999L9.99997 13.2927L16.5854 9.99998L19.9828 11.6987L9.99997 16.6901L0.0170898 11.6987L3.41455 9.99999Z" fill="black"/>
<path fill-rule="evenodd" clip-rule="evenodd" d="M9.99997 4.65142L2.70038 8.30122L9.99998 11.951L17.2996 8.30122L9.99997 4.65142ZM9.99997 3.30978L19.9828 8.30122L9.99997 13.2927L0.0170975 8.30122L9.99997 3.30978Z" fill="black"/>
</svg>
